Point/img/volume.svg

<svg width="13" height="19" viewBox="0 0 13 19" fill="none" xmlns="http://www.w3.org/2000/svg">
<path d="M1.77881 12.2018V6.38505C1.77881 5.82097 2.21907 5.36302 2.76153 5.36302H6.28557C6.41561 5.36256 6.54422 5.33577 6.66363 5.28425C6.78304 5.23274 6.89078 5.15758 6.98035 5.06329L9.92851 1.73384C10.5476 1.08917 11.606 1.54614 11.606 2.45712V16.1307C11.606 17.0486 10.5349 17.5016 9.91967 16.8441L6.98133 13.5334C6.8915 13.4364 6.78267 13.359 6.66162 13.3059C6.54057 13.2528 6.40988 13.2252 6.2777 13.2248H2.76153C2.21907 13.2248 1.77881 12.7668 1.77881 12.2018Z" stroke="#00325A" stroke-width="1.96544" stroke-linecap="round" stroke-linejoin="round"/>
</svg>

<svg width="13" height="19" fill="none" xmlns="http://www.w3.org/2000/svg"><path d="M1.779 12.202V6.385c0-.564.44-1.022.983-1.022h3.524a.963.963 0 00.694-.3l2.949-3.33c.619-.644 1.677-.187 1.677.724v13.674c0 .918-1.071 1.37-1.686.713l-2.939-3.31a.963.963 0 00-.703-.31H2.762c-.543 0-.983-.457-.983-1.022z" stroke="#00325A" stroke-width="1.965" stroke-linecap="round" stroke-linejoin="round"/></svg>
